packages/icons/svgs/duotone/Source=medium.svg

<svg width="24" height="24" viewBox="0 0 24 24" fill="none" xmlns="http://www.w3.org/2000/svg">
<path fill-rule="evenodd" clip-rule="evenodd" d="M22.7071 13.7071C22.3166 14.0976 21.6834 14.0976 21.2929 13.7071L12 4.41421L2.70711 13.7071C2.31658 14.0976 1.68342 14.0976 1.29289 13.7071C0.902369 13.3166 0.902369 12.6834 1.29289 12.2929L11.2929 2.29289C11.6834 1.90237 12.3166 1.90237 12.7071 2.29289L22.7071 12.2929C23.0976 12.6834 23.0976 13.3166 22.7071 13.7071Z" fill="black" style="fill:black;fill-opacity:1;"/>
<path opacity="0.5" fill-rule="evenodd" clip-rule="evenodd" d="M22.7071 21.7071C22.3166 22.0976 21.6834 22.0976 21.2929 21.7071L12 12.4142L2.70711 21.7071C2.31658 22.0976 1.68342 22.0976 1.29289 21.7071C0.902369 21.3166 0.902369 20.6834 1.29289 20.2929L11.2929 10.2929C11.6834 9.90237 12.3166 9.90237 12.7071 10.2929L22.7071 20.2929C23.0976 20.6834 23.0976 21.3166 22.7071 21.7071Z" fill="black" style="fill:black;fill-opacity:1;"/>
</svg>

<svg xmlns="http://www.w3.org/2000/svg" width="24" height="24" viewBox="0 0 24 24"><path fill-rule="evenodd" d="M22.707 13.707a1 1 0 0 1-1.414 0L12 4.414l-9.293 9.293a1 1 0 0 1-1.414-1.414l10-10a1 1 0 0 1 1.414 0l10 10a1 1 0 0 1 0 1.414" clip-rule="evenodd"/><path fill-rule="evenodd" d="M22.707 21.707a1 1 0 0 1-1.414 0L12 12.414l-9.293 9.293a1 1 0 0 1-1.414-1.414l10-10a1 1 0 0 1 1.414 0l10 10a1 1 0 0 1 0 1.414" clip-rule="evenodd" opacity=".5"/></svg>
